X:131
T:Oh, Susanna
C:S. Foster
M:2/4
L:1/8
K:D
d/e/|fa a>b|af d>e|ff ed|e3 d/e/|fa a>b|af d>e|ff ee|d2 z::
z|g2 g2|b b2 b|aa fd|e3 d/e/|fa a>b|af d>e|ff dd|d2 z:|
